X:1
T:The Beggar Wench
M:2/4
L:1/8
K:F
 F| AA cc| df c3/2 A/2| B/2 B A/2 GF| FA G| F| FA cc| cf cc/2-A/2|\
 BA G F/2F/2| FA G| A/2A/2| F3/2 C/2 C C/2C/2| A3/2 G/2 F||
